X: 39487
T: Tatter Jack Walsh
R: jig
M: 6/8
K: Dmixolydian
fe|:d2e fed|cAB c2d|cAF GFG|Add dfe|
d2e fed|cAB c2d|cAF GFG|1 Add dfe:|2 Add d2A|
|:dfa afd|dfa a3|ceg gec|ceg geg|
fdf e^ce|dAB c2d|cAF GFG|1 Add d2A:|2 Add d||

